!!!COM: Scriabin, Alexander
!!!OTL: Prelude
!!!OPR: 4 Preludes
!!!OPS: 39
!!!ONM: 4
!!!ODT: 1903
!!!AGN: Prelude
**kern	**kern
*staff2	*staff1
*clefF4	*clefG2
*k[b-e-a-d-]	*k[b-e-a-d-]
*f:	*f:
*M3/4	*M3/4
8.FFF-XL 8.FF-X	8.A-L 8.c 8.a-
16EEE-Jk 16EE-	16GJk 16c 16g
=1	=1
[2AAA- [2AA-	8G-X [8c 8g-X
.	[4.F 4.c_ [4.f
8AAA-L] 8AA-]	8FL] 8c] 8f]
8DDD-J 8DD-	8F-XJ 8A- 8c 8f-X
=2	=2
8qDDD-/ 8qDD-	.
4.AA- 4.F-X 4.A-	4.c 4.f-X 4.cc
[8DDD- [8DD-	[8F-X [8A- [8B- [8f-
8.DDD-L] 8.DD-]	8.F-L] 8.A-] 8.B-] 8.f-]
16CCCJk 16CC	16E-Jk 16A- 16c 16e-
=3	=3
*	*clefF4
[2EEEn [2EEn	4Dn 4G#X 4dn
.	[4C#X [4G# [4c#X
8EEEL] 8EE]	8C#L] 8G#] 8c#]
8AAAAnJ 8AAAn	8CnJ 8En 8G# 8cn
=4	=4
8qAAAAn/ 8qAAAn	.
4.EEn 4.C 4.En	4.G#X 4.c 4.g#X
[8AAAA [8AAA	[8C [8En [8F#X [8c
8.AAAAL] 8.AAA]	8.CL] 8.E] 8.F#] 8.c]
16GGG#XJk	16BBnJk 16E 16G# 16Bn
=5	=5
2.CCC 2.CC	4BBn 4En 4Bn
.	[4BB-X [4E [4B-X
.	8BB-L] 8E] 8B-]
.	8EEnJ 8E
=6	=6
4.CCC#X 4.CC#X	4.AAn 4.En 4.An
[8CCC# [8CC#	[8AA [8E [8A
8.CCC#L] 8.CC#]	8.AAL] 8.E] 8.A]
16DDDnJk 16DDn	16BB-Jk 16F-X 16A-X
=7	=7
4DDDn 4DDn	4BB- 4F-X 4A-
4EEE- 4EE-	4BB- 4E- 4G
4BBBB- 4BBB-	4AA- 4Dn 4F-X
=8	=8
2EEE- 2EE-	2GG 2BB- 2E-
4r	8.f-XL
.	16e-Jk
=9	=9
*^	*
2F-X	2.GGG-X [2.GG-X	4B- 4dn
.	.	4B-- 4d-X
8.F-L	.	4A- 4c
16E-Jk	.	.
=10	=10	=10
*	*	*^
4E--	4GG-]	2A- 2a-	4c
4D-	4FF	.	4d-
8.CL	[4EEn [4C	4rc	[4e--
16A-Jk	.	.	.
=11	=11	=11	=11
*	*	*	*^
2A-	4EE] 4C]	4rc	4e--]	4r
.	4FF 4D-	4rc	4d-	4r
4rc	[4EEn [4E--	8.cL	[4c	[4A-\
.	.	16a-Jk	.	.
=12	=12	=12	=12	=12
2.ryy	4EE] 4E--]	2a-	4c]	2A-\]
.	4FF 4D-	.	4d-	.
.	4r	8.e--L	4rEE	4r
.	.	16d-Jk	.	.
*	*	*v	*v	*v
=13	=13	=13
2E--	2.FFF-X [2.FF-X	4A- 4c
.	.	4A-- 4c-X
8.E--L	.	4G-X 4B-
16D-Jk	.	.
=14	=14	=14
*	*	*^
*	*	*	*^
4D--	4FF-]	2g-X	4B-	2G-X\
4C-X	4EE-	.	4c-X	.
4rc	[4EE-- [4C--	8.A-L	[4A-	[4F-X\
.	.	16f-XJk	.	.
=15	=15	=15	=15	=15
2.ryy	4EE--] 4C--]	2f-X	4A-]	2F-\]
.	4DD- 4BB--	.	4B--	.
.	4EEE- 4EE-X	4D- 4E- 4G	4rEE	4r
*	*	*v	*v	*v
=16	=16	=16
2.ryy	2AAA- 2AA-	2C 2E- 2A-
.	4r	4r
*v	*v	*
==	==
*-	*-
!!!system-decoration: {(*)}
!!!ENC: Bryan Jacob Bell
!!!END: November 2021 to April 2022
!!!PED: Konstantin Igumnov and Yakov Milstein
!!!PTL: A.N. Skryabin: Polnoe sobranie sochinenii dlia fortepiano (Muzgiz)
